icons/glyphs/glyph-man.svg

<?xml version="1.0" encoding="UTF-8" standalone="no"?><svg height="22" viewBox="0 0 5.8208332 5.8208335" width="22" xmlns="http://www.w3.org/2000/svg"><sodipodi:namedview/><metadata><rdf:RDF><cc:Work><dc:format>image/svg+xml</dc:format><dc:type/><dc:title/></cc:Work></rdf:RDF></metadata><path d="m2.9104166 0a .6149687.6149687 0 0 0 -.6149562.61495616.6149687.6149687 0 0 0  .6149562.61495624.6149687.6149687 0 0 0  .6149562-.61495624.6149687.6149687 0 0 0 -.6149562-.61495616zm-1.8938203 1.4177646c-.19047175-.0002705-.34504225.154026-.34510975.344498.0000675.1904721.154638.3447684.34510975.3444979h1.1717822c.096733 0 .1743905.077657.1743905.1743905v.2208947l-.7287689 2.8887643c-.046625.1845144.065144.3718929.2496538.4185376.1845144.046625.3718925-.065144.4185373-.2496539l.4693249-1.8589424c.044978-.15933.1979949-.1654013.2551609 0l .4919649 1.8638375c.048798.1837374.2371676.2932544.4209851.2447588.1839849-.048527.2938261-.2369813.2453705-.420985l-.7697662-2.9114046v-.195807c0-.096733.077658-.1743905.1743907-.1743905h1.2146149c.1904719.0002705.3450425-.1540258.3451099-.3444979-.0000674-.190472-.154638-.3447684-.3451099-.344498z" fill="#d0d0d0" stroke-linecap="round" stroke-width=".485405"/></svg>

<?xml version="1.0" encoding="UTF-8" standalone="no"?>
<!-- Created with Inkscape (http://www.inkscape.org/) -->

<svg
   xmlns:dc="http://purl.org/dc/elements/1.1/"
   xmlns:cc="http://creativecommons.org/ns#"
   xmlns:rdf="http://www.w3.org/1999/02/22-rdf-syntax-ns#"
   xmlns:svg="http://www.w3.org/2000/svg"
   xmlns="http://www.w3.org/2000/svg"
   xmlns:sodipodi="http://sodipodi.sourceforge.net/DTD/sodipodi-0.dtd"
   xmlns:inkscape="http://www.inkscape.org/namespaces/inkscape"
   width="22"
   height="22"
   viewBox="0 0 5.8208332 5.8208335"
   version="1.1"
   id="svg8"
   inkscape:version="0.92+devel 15719 custom"
   sodipodi:docname="glyph-man.svg">
  <defs
     id="defs2" />
  <sodipodi:namedview
     id="base"
     pagecolor="#002466"
     bordercolor="#ffffff"
     borderopacity="0.37647059"
     inkscape:pageopacity="1"
     inkscape:pageshadow="2"
     inkscape:zoom="18.613637"
     inkscape:cx="13.480062"
     inkscape:cy="11.925025"
     inkscape:document-units="px"
     inkscape:current-layer="svg8"
     inkscape:document-rotation="0"
     showgrid="false"
     inkscape:showpageshadow="false"
     borderlayer="true"
     units="px"
     inkscape:window-width="1920"
     inkscape:window-height="1051"
     inkscape:window-x="0"
     inkscape:window-y="0"
     inkscape:window-maximized="1" />
  <metadata
     id="metadata5">
    <rdf:RDF>
      <cc:Work
         rdf:about="">
        <dc:format>image/svg+xml</dc:format>
        <dc:type
           rdf:resource="http://purl.org/dc/dcmitype/StillImage" />
        <dc:title></dc:title>
      </cc:Work>
    </rdf:RDF>
  </metadata>
  <path
     inkscape:connector-curvature="0"
     style="fill:#d0d0d0;stroke-width:0.48540518;stroke-linecap:round;stroke-miterlimit:4;stroke-dasharray:none"
     d="M 2.9104166,0 A 0.6149687,0.6149687 0 0 0 2.2954604,0.61495616 0.6149687,0.6149687 0 0 0 2.9104166,1.2299124 0.6149687,0.6149687 0 0 0 3.5253728,0.61495616 0.6149687,0.6149687 0 0 0 2.9104166,0 Z M 1.0165963,1.4177646 c -0.19047175,-2.705e-4 -0.34504225,0.154026 -0.34510975,0.344498 6.75e-5,0.1904721 0.154638,0.3447684 0.34510975,0.3444979 h 1.1717822 c 0.096733,0 0.1743905,0.077657 0.1743905,0.1743905 V 2.5020457 L 1.6340001,5.39081 c -0.046625,0.1845144 0.065144,0.3718929 0.2496538,0.4185376 0.1845144,0.046625 0.3718925,-0.065144 0.4185373,-0.2496539 L 2.7715161,3.7007513 c 0.044978,-0.15933 0.1979949,-0.1654013 0.2551609,0 L 3.5186419,5.5645888 C 3.5674399,5.7483262 3.7558095,5.8578432 3.939627,5.8093476 4.1236119,5.7608206 4.2334531,5.5723663 4.1849975,5.3883626 L 3.4152313,2.476958 V 2.281151 c 0,-0.096733 0.077658,-0.1743905 0.1743907,-0.1743905 H 4.8042369 C 4.9947088,2.107031 5.1492794,1.9527347 5.1493468,1.7622626 5.1492794,1.5717906 4.9947088,1.4174942 4.8042369,1.4177646 Z"
     id="rect831"
     inkscape:label="#" />
</svg>
